img/linkedin.svg

<svg width="24" height="24" xmlns="http://www.w3.org/2000/svg" xmlns:xlink="http://www.w3.org/1999/xlink" xml:space="preserve" overflow="hidden"><defs><clipPath id="clip0"><rect x="0" y="0" width="24" height="24"/></clipPath></defs><g clip-path="url(#clip0)"><path d="M3.67753 9.11111 3.67753 20.6666 7.25644 20.6666 7.25644 9.11111ZM16.4608 8.75806C14.0087 8.75806 12.9767 10.6676 12.9767 10.6676L12.9767 9.11111 9.54452 9.11111 9.54452 20.6666 12.9767 20.6666 12.9767 14.6007C12.9767 12.9754 13.7248 12.0082 15.1569 12.0082 16.4734 12.0082 17.1052 12.9376 17.1052 14.6007L17.1052 20.6666 20.6666 20.6666 20.6666 13.3503C20.6666 10.2548 18.9119 8.75806 16.4608 8.75806ZM5.44969 3.33334C4.28067 3.33334 3.3334 4.28811 3.3334 5.46567 3.3334 6.64321 4.28067 7.59801 5.44969 7.59801 6.61891 7.59801 7.56561 6.64321 7.56561 5.46567 7.56561 4.28811 6.61891 3.33334 5.44969 3.33334ZM2.6666 4.76837e-07 21.3334 4.76837e-07C22.8061 4.76837e-07 24 1.19392 24 2.66666L24 21.3334C24 22.8061 22.8061 24 21.3334 24L2.6666 24C1.19392 24 1.90735e-06 22.8061 1.90735e-06 21.3334L1.90735e-06 2.66666C1.90735e-06 1.19392 1.19392 4.76837e-07 2.6666 4.76837e-07Z" fill="#007EBB" fill-rule="evenodd"/></g></svg>

<svg viewBox="0 0 24 24" preserveAspectRatio="xMidYMid" overflow="hidden" xmlns="http://www.w3.org/2000/svg">
    <path d="M3.678 9.111v11.556h3.578V9.11zm12.783-.353c-2.452 0-3.484 1.91-3.484 1.91V9.11H9.545v11.556h3.432V14.6c0-1.626.748-2.593 2.18-2.593 1.316 0 1.948.93 1.948 2.593v6.066h3.562V13.35c0-3.095-1.755-4.592-4.206-4.592zM5.45 3.333a2.124 2.124 0 00-2.117 2.133c0 1.177.948 2.132 2.117 2.132s2.116-.955 2.116-2.132A2.124 2.124 0 005.45 3.333zM2.667 0h18.666A2.667 2.667 0 0124 2.667v18.666A2.667 2.667 0 0121.333 24H2.667A2.667 2.667 0 010 21.333V2.667A2.667 2.667 0 012.667 0z" fill="currentColor" fill-rule="evenodd"/>
</svg>
